assets/brush_trace_top.svg

<svg xmlns="http://www.w3.org/2000/svg" viewBox="0 0 260.256 95.13"><defs><style>.a{fill:#292422}</style></defs><path class="a" d="M104.691 67.731l-1.092-.707c3.545-.289 7.12-.686 10.664-.627l44.407-.2 30.968.237c-1.776-1.163-4.165.474-5.506-1.195 5.727 0 11.426.39 17.151 0-5.087-.923-10.336-.418-15.451-1.3l-.135-.484c3.465 0 6.989-.641 10.383-.021 1.54-.857 3.538 1.32 4.449-1.1-.5-.188-1.443.533-1.5-.582 4.7-.728 9.118.954 13.82.23-1.785.244-3.529-1.435-4.679-.658-.808-.2-2.428-.784-3.6.056-.067-.247-.225-.54.02-.787l-.844.251.131.481c-2.193-.5-1.391.421-3.16-.86-10.017-.345-19.984-.791-29.988-.8l-1.083-.7c10.157-.7 20.127.481 30.275.188-.308-.209-.656-.362-.665-.839 1.331-.8 3.265 1.867 3.871.136 10.883-.233 21.8 1.707 32.487.808-1.195-.505-2.831.561-3.588-.731l.131.484c-1.881-.3-4.213.317-5.651-.9l-.287.61-7.053-.192c-1.407-.794-2.5-.38-3.843-.934-.943 1.6-2.965.345-4.024.188-1.134.122-2.645-1.062-3.323.226-1.235-1.411-3.371.192-4.414-.495-.367.028-.748.442-1.111.08-4.291-1.331-9.932.1-14.2-1.675 2.588-1.045 5.374.975 7.48-.711a1.106 1.106 0 0 0 1.936.456l.124.484c1.964-1.379 5.2.463 5.683-.686l-15.6-.989-1.629-1.066c5.825-.463 11.839.272 17.451-.606l-20.728-.735-1.09-.721c2.138-.6 4.382.669 6.378-.627 6.36 1.021 13.727.557 19.342.627l-20.843-1.219-40.5-1.247-1.083-.711c4.8-.463 9.786.2 14.393-.2l-.128-.481 1.53-.206 63.847 1.721a1.375 1.375 0 0 1-.317-.453.763.763 0 0 1 .048.286c-2.26-.286-6.4.021-6.757-.815l.124.484c-.511-.209-1.448.512-1.512-.592l.152-.307c-4.382-.063-9.577-.655-13.136-.178l.124.484-.415.132c-.317-.348-1.028-.348-.939-1.021-9.671-.317-20.047-1.163-30.117-1.282l-1.092-.711c9.127-.77 18.261.8 27.106.118-.817-.54-2.109.286-2.469-.815 1.6.24 3.012-1.442 4.139.3l.294-.617c5.433.094 11.706.32 16.313.272-.594-.261-1.625.4-1.783-.78-17.713-1.035-35.452-1.428-53.187-2.33l-1.345-.9c20.175-.216 40.2.725 60.245 1.763l5.275-.547-3.6.035c-7.262-.864-14.544-.951-21.813-1.446l-47.807-1.637c-1.831-.129-4.125.641-5.521-.4a390.677 390.677 0 0 1 52.254.547l2.108-.637c3.7.944 7.765.2 11.436.582-.044-.418-.362-.54-.656-.728l-42.812-2.372-.124-.491c.918.07.48-.749 1.136-.857.31.077.321.415.39.658.869.167 2.242.658 2.781-.592.066 1.115 1.826.934 1.51.592l-.122-.477 1.8-.021c1.849 2.477 1.6-1.09 3.871.129 1.425-.613 3.02.3 4 .613l-.844.244c2.818-.164 6.643.937 8.466-.474 4.279-.272 8.772.669 12.849 0-14.786-.728-29.523-2.02-44.343-2.17l-1.083-.707c7.735-.484 16.208.725 23.087.275l-.016-.348-8.428-.293.016.338c-4.814-.878-10.093.2-14.469-1.846q12.1.094 24.2.206c-.775-.509-1.576-.223-2.354-.331-3.5.1-7.186-1.163-10.493-.463-2.95-1.184-6.4-.307-8.951-1.439l.417-.129c-.315-.212-.652-.362-.665-.846 5-1.724 10.19.463 14.673-.808L157.4 24.949l-1.085-.707c13.592-.78 26.475 1.3 39.818.421l-.018-.345-13.675-.536.02.355-1.37-.892 3.334-.226-12.3-.432-.255-.972c4.554-.557 9.854.578 13.562.063l-.023-.355-35.508-1.205.02.345-1.1-.718c1.1.331 2.317-.947 3.327-.223.163-.564.934-1.327.464-1.689-34.325-.975-68.372-1.62-102.917 5.953 1.372.5 3.2-.707 4.144.307a8.016 8.016 0 0 0-.923.286c.89-.185 1.769-.327 2.279.606-2.4.428-4.869 1.09-7.221.885l-.124-.484a1.053 1.053 0 0 1 .181-.237l-3.35.167-.122-.484 4.173-1.264c-4.807 1.32-9.306-.954-14.118.373l-.124-.491 2.1-.627-4.4 1a.78.78 0 0 1 .479.449c-5.934 1.71-12.028 2.668-18.16 4.128a19.438 19.438 0 0 1-2.838 3.553 43.762 43.762 0 0 0-10.578 16.48A982.197 982.197 0 0 1 0 70.381c2.333 9.137 8.233 17.479 17.669 23.251a19.361 19.361 0 0 1 2.093 1.5c2.547-1.188 5.523-1.749 7.68-3.462l.128.477c4.477-1.393 9.315-1.776 14.056-3.2l-5.844.975-.124-.477-1.819.8-.25-.958c28.394-7.05 56.9-8.962 85.057-10.432l-1.092-.711q23.844-.914 47.577-.115l-.938-1.017.415-.118c-.316-.212-.659-.362-.665-.836l1.255-.383-.551-.362-39.255-.843-.122-.484c10.453-.432 21.315-.61 31.961-.317l52.511 1.508 8.99-.125c-7.7.042-15.348-1.163-23.064-1.076a26.139 26.139 0 0 0-9.809-.411c-1.01-.129-2.441-1.118-3.031-.376-3.687-.265-8 .042-11.045-.815-5.149-1.3-11.015.745-15.728-1.48 9.543-.024 19.939-.1 28.632-.087l-16.866-.613-1.081-.707c20.561-.031 41.821 1.331 61.507 1.386-41.188-.924-82.086-5.171-123.556-3.142z"/><path class="a" d="M31.854 24.792c15.755-2.159 31.548-3.706 45.091-5.092l-.236-.483 4.347-.157-1.597-.52c-15.326 1.526-30.959 2.828-46.7 4.594a11.134 11.134 0 0 1-.905 1.658zm-.811 1.119a16.3 16.3 0 0 1-1.5 1.6c3.079-.359 6.36-.474 7.1-.8a.808.808 0 0 1-.77-.669l8.2-1.261c-4.503.179-8.777.608-13.03 1.13zm166.497 17.89c4.856 1.686 11.947.846 17.347.972l-7.611-.125c.132-1.755-8.116-.708-9.736-.847zM63.756 22.514l4.1-.63zm9.516-7.116l-10.885.373 9.816-.742zM61.908 89.923c-.484.24-.164.54-.042.78-.059.923-2.992-1.317-2.762.69-.982-.331-2 .132-3 .2.118-.362.7-.373 1.1-.435l-.77-.658zm4.286-72.33l8.461-.784zm13.47-3.082c-2.254.78-5.256.108-7.886.171 2.78-.941 5.267.013 7.886-.171z"/><path class="a" d="M116.337 12.49c-5.319 1.428-17.054.718-25.6 1.083l-.282.3c-6.127.3-12.557.035-18.256.745l-1.585-.54c15.162.038 30.627-2.215 45.723-1.588zm-21.443 75.2l-9.011.606 7.374-.355zm-44-.262l6.8-.522zm6.779-.797l2.459-.387z"/><path class="a" d="M106.129 12.55c-.578.756-1.825.206-2.72-.091.477-.118 1.884-.508 2.72.091zm10.196-.467l-7.876.171 5.462-.585zm-8.805 8.167l9.248-.118zm25.635-8.857a58.278 58.278 0 0 1-16.322.188c5.469-.468 10.833.056 16.322-.188z"/><path class="a" d="M143.324 11.327c-5.827-.4-11.53 1.3-17.677.122 5.577-.949 11.672.278 17.677-.122zm-7.009 16.057l-16.58-.307 12.787-.156zM147.881.421c-3.086-.226-8.092.641-10.861-.4 3.623.124 7.304-.311 10.861.4zm-13.607 18.366l-4.082-.153 3.02-.2zm2.824.809l-5.187.286 4.344-.167zm5.251 54.69c-10.509-.024-21.157.226-31.847 1.017l.237.474-.017-.338 14.142-.1.014.341-14.954.223.817-.122c-3.674-1.69-7.69-.3-12.18-1.24 14.598.296 29.405-1.373 43.788-.255zm29.992-3.341l-76.116.286 60.1-.425zM149.03 11.326c.794-.721-2.355 1.62-3.546.028zm1.283 8.5l-.031-.345 8.969.185.014.345c-6.876-.157-13.933.495-20.642-.463 3.919.56 9.366-.614 11.69.278zM114.25 78.417zm39.069-51.328c-3.56.543-9.175-.575-13.856-.209zm-.488-15.627l-2.191.066 1.634-.254z"/><path class="a" d="M155.876 11.177c-.815.383-2.717 1.028-3.8.338a14.785 14.785 0 0 0 3.8-.338zm-2.898 36.441c-2.814 0-5.6-.383-8.422 0l.244.474-1.658.254 1.658-.254-.244-.474-11.676-.275zm9.03-35.674l-2.72-.108 2.48-.373zm-10.864 19.84l4.09.153zm-1.556 6.367l4.9.031zm12.251-22.962l3.546-.031zM130.307 79.1l9.248-.118zm28.997-54.753l5.43.206zm9.168-6.705c1.268 1.163 4.323-.223 5.646 1.48-4.4.2-10.46.655-14.386-.383 2.913-1.097 6.577 1.582 8.74-1.097zm-14.959 14.25l16.037.125zm7.336-4.069c.035-.522-.683-.637-1.3-.843l11.662.286-1.648.258 2.145.71-15.741-.435c1.637.01 3.182.592 4.882.024zm1.827 2.237l3.246.279zm2.448-2.202l2.476-.376zm-25.913 51.426l10.06-.247zm29.731-56.634l4.6.331zm8.064-.829c1.515 2.1 6.413 1 9.68 1.62l-15.727-.435c1.989-.136 4.385.073 5.984-.4-2.525-1.648-6.939-.32-10.265-1.014l12.491.157zm-35.692 59.62l7.865-.171zm32.86-63.332l3.509-.021zm-10.318 22.153l4.619.334zm14.136-20.736c-.958-.2-2.814.522-2.947-.571zm-28.75 56.258l4.051.157zM163.4 47.771l3.537-.031zm14.794-12.686h-8.433l1.644-.258-2.125-.7c2.083 1.5 5.991.722 8.914.958zm-29.206 44.28l2.459-.383zm8.215 1.799c-3.253.975-7.242-.01-10.868.383zm3.595-28.244l9.777.063zm-5.153 17.942l3.243.275zm1.783-1.47l2.187-.073zm4.761 9.764l.017.355-10.6.07-.038-.345 9.788.052zm.235-20.321l8.13.307zm16.35-30.75l4.88.024zm-20.345 42.986l3.535-.021zm23.547-47.887l8.133.317zm-13.718 29.712l5.97.383zm50.633-25.442l-23.634-.254.251.484-2.985.209c1.278-.373-1.212-1.209-2.672-.888l.24.481c-6.973-1.526-17.131.439-23.589-1.052 17.055-.457 34.941.42 52.389 1.02zm-35.663.986l6.545-.223zm16.613 25.104c-11.4.672-25.964.091-38.845-.516zM165.38 51.2l29.082.47zm-7.434 24.842l16.552.307zm10.096-17.054l11.118.1zm-2.593 10.467l7.59.122zm-2.961-14.09l39.364.69zm17.765-6.9l2.181-.073zm9.38-19.795l3.807-.331zM171.962 69.5l3.267.272zm-3.091 7.656l3.264.286zm29.184-46.933c-2.261.038-4.629.32-6.775-.254zm-11.816 2.041l18.458.54zm7.951-3.598l3.535-.021zm-5.487 6.016l13.55.516zm-2.751 41.398c-5.288.373-10.213-.735-15.5.045a.792.792 0 0 0 .763.655l-2.163.073 1.637-.254-1.321-.829a95.759 95.759 0 0 1 16.584.31zm-7.289 1.568c-.582-1.122-2.8-1-4.323-.641l5.183-.272c-.122.369-.718.369-1.118.428.488 1.226 2.762.192 4.027.94l-9.77-.052zm17.081-13.877l-9.488-.359h8.429zm-13.383 13.215l2.18-.08zm8.402-11.544l2.187-.08zm-.04-3.978l13.013.32zm12.338 17.058c-7.782.669-16.242-.536-24.445-.143 7.747-.275 16.312-.296 24.445.143zm-9.636-7.618l4.873.024zm-19.892-25.469c-2.435.857-5.6-.272-8.429-.017zm42.067 21.23a225.108 225.108 0 0 1-24.982-.307c7.948-.237 16.702.021 24.982.307zm-13.275 4.385c-1.08-.1-3.459 1.191-4.89-.017zm-26.373-25.218l3.839-.331zm22.307 25.598l17.674-.118zm-.851-25.267l-16.016-.125 5.988-.415zm-4.839 9.596c-2.477 1.111-7.97.021-11.972.021zm15.703-3.992l-23.63-.254 5.162-.268zm3.279 27.34l-7.6-.136 3.825-.327zm-32.959-15.992l2.48-.376zm-9.684 13.986l3-.216zm26.616-20.767l3.825-.331zm9.258 5.082c-1.808.8 3.779.46 5.664.686-5.242.728-11.16-.575-16.859 0l11.439-.209zm.397-7.869l2.713.108zm-17.9 25.658a14.889 14.889 0 0 1-5.73.091zm29.674-16.549l2.989-.192zm8.412.007l4.891.021zm-8.782 17.479l-.822.122 2.146.714-7.632-.122c2.121-.104 6.19.526 6.308-.714zm1.874-4.971l13.856.219zm4.567-4.083l2.181-.073zm-2.421 10.001l5.73-.1zm20.631.464l5.183-.286zm16.897-.792l2.125.711-2.163.08.289-.31c-.432-.676-2.529-.3-3.79-.46.122.237.439.533-.035.791 1.3-.362-1.191-1.2-2.668-.888l-.825.129 1.31.832-4.065-.153 1.637-.251-2.132-.714 11.143.108z"/></svg>

<svg xmlns="http://www.w3.org/2000/svg" viewBox="0 0 260.256 95.13"><defs><style>.a{fill:#292422}</style></defs><path class="a" d="M104.691 67.731l-1.092-.707c3.545-.289 7.12-.686 10.664-.627l44.407-.2 30.968.237c-1.776-1.163-4.165.474-5.506-1.195 5.727 0 11.426.39 17.151 0-5.087-.923-10.336-.418-15.451-1.3l-.135-.484c3.465 0 6.989-.641 10.383-.021 1.54-.857 3.538 1.32 4.449-1.1-.5-.188-1.443.533-1.5-.582 4.7-.728 9.118.954 13.82.23-1.785.244-3.529-1.435-4.679-.658-.808-.2-2.428-.784-3.6.056-.067-.247-.225-.54.02-.787l-.844.251.131.481c-2.193-.5-1.391.421-3.16-.86-10.017-.345-19.984-.791-29.988-.8l-1.083-.7c10.157-.7 20.127.481 30.275.188-.308-.209-.656-.362-.665-.839 1.331-.8 3.265 1.867 3.871.136 10.883-.233 21.8 1.707 32.487.808-1.195-.505-2.831.561-3.588-.731l.131.484c-1.881-.3-4.213.317-5.651-.9l-.287.61-7.053-.192c-1.407-.794-2.5-.38-3.843-.934-.943 1.6-2.965.345-4.024.188-1.134.122-2.645-1.062-3.323.226-1.235-1.411-3.371.192-4.414-.495-.367.028-.748.442-1.111.08-4.291-1.331-9.932.1-14.2-1.675 2.588-1.045 5.374.975 7.48-.711a1.106 1.106 0 0 0 1.936.456l.124.484c1.964-1.379 5.2.463 5.683-.686l-15.6-.989-1.629-1.066c5.825-.463 11.839.272 17.451-.606l-20.728-.735-1.09-.721c2.138-.6 4.382.669 6.378-.627 6.36 1.021 13.727.557 19.342.627l-20.843-1.219-40.5-1.247-1.083-.711c4.8-.463 9.786.2 14.393-.2l-.128-.481 1.53-.206 63.847 1.721a1.375 1.375 0 0 1-.317-.453.763.763 0 0 1 .048.286c-2.26-.286-6.4.021-6.757-.815l.124.484c-.511-.209-1.448.512-1.512-.592l.152-.307c-4.382-.063-9.577-.655-13.136-.178l.124.484-.415.132c-.317-.348-1.028-.348-.939-1.021-9.671-.317-20.047-1.163-30.117-1.282l-1.092-.711c9.127-.77 18.261.8 27.106.118-.817-.54-2.109.286-2.469-.815 1.6.24 3.012-1.442 4.139.3l.294-.617c5.433.094 11.706.32 16.313.272-.594-.261-1.625.4-1.783-.78-17.713-1.035-35.452-1.428-53.187-2.33l-1.345-.9c20.175-.216 40.2.725 60.245 1.763l5.275-.547-3.6.035c-7.262-.864-14.544-.951-21.813-1.446l-47.807-1.637c-1.831-.129-4.125.641-5.521-.4a390.677 390.677 0 0 1 52.254.547l2.108-.637c3.7.944 7.765.2 11.436.582-.044-.418-.362-.54-.656-.728l-42.812-2.372-.124-.491c.918.07.48-.749 1.136-.857.31.077.321.415.39.658.869.167 2.242.658 2.781-.592.066 1.115 1.826.934 1.51.592l-.122-.477 1.8-.021c1.849 2.477 1.6-1.09 3.871.129 1.425-.613 3.02.3 4 .613l-.844.244c2.818-.164 6.643.937 8.466-.474 4.279-.272 8.772.669 12.849 0-14.786-.728-29.523-2.02-44.343-2.17l-1.083-.707c7.735-.484 16.208.725 23.087.275l-.016-.348-8.428-.293.016.338c-4.814-.878-10.093.2-14.469-1.846q12.1.094 24.2.206c-.775-.509-1.576-.223-2.354-.331-3.5.1-7.186-1.163-10.493-.463-2.95-1.184-6.4-.307-8.951-1.439l.417-.129c-.315-.212-.652-.362-.665-.846 5-1.724 10.19.463 14.673-.808L157.4 24.949l-1.085-.707c13.592-.78 26.475 1.3 39.818.421l-.018-.345-13.675-.536.02.355-1.37-.892 3.334-.226-12.3-.432-.255-.972c4.554-.557 9.854.578 13.562.063l-.023-.355-35.508-1.205.02.345-1.1-.718c1.1.331 2.317-.947 3.327-.223.163-.564.934-1.327.464-1.689-34.325-.975-68.372-1.62-102.917 5.953 1.372.5 3.2-.707 4.144.307a8.016 8.016 0 0 0-.923.286c.89-.185 1.769-.327 2.279.606-2.4.428-4.869 1.09-7.221.885l-.124-.484a1.053 1.053 0 0 1 .181-.237l-3.35.167-.122-.484 4.173-1.264c-4.807 1.32-9.306-.954-14.118.373l-.124-.491 2.1-.627-4.4 1a.78.78 0 0 1 .479.449c-5.934 1.71-12.028 2.668-18.16 4.128a19.438 19.438 0 0 1-2.838 3.553 43.762 43.762 0 0 0-10.578 16.48A982.197 982.197 0 0 1 0 70.381c2.333 9.137 8.233 17.479 17.669 23.251a19.361 19.361 0 0 1 2.093 1.5c2.547-1.188 5.523-1.749 7.68-3.462l.128.477c4.477-1.393 9.315-1.776 14.056-3.2l-5.844.975-.124-.477-1.819.8-.25-.958c28.394-7.05 56.9-8.962 85.057-10.432l-1.092-.711q23.844-.914 47.577-.115l-.938-1.017.415-.118c-.316-.212-.659-.362-.665-.836l1.255-.383-.551-.362-39.255-.843-.122-.484c10.453-.432 21.315-.61 31.961-.317l52.511 1.508 8.99-.125c-7.7.042-15.348-1.163-23.064-1.076a26.139 26.139 0 0 0-9.809-.411c-1.01-.129-2.441-1.118-3.031-.376-3.687-.265-8 .042-11.045-.815-5.149-1.3-11.015.745-15.728-1.48 9.543-.024 19.939-.1 28.632-.087l-16.866-.613-1.081-.707c20.561-.031 41.821 1.331 61.507 1.386-41.188-.924-82.086-5.171-123.556-3.142z"/><path class="a" d="M31.854 24.792c15.755-2.159 31.548-3.706 45.091-5.092l-.236-.483 4.347-.157-1.597-.52c-15.326 1.526-30.959 2.828-46.7 4.594a11.134 11.134 0 0 1-.905 1.658zM31.043 25.911a16.3 16.3 0 0 1-1.5 1.6c3.079-.359 6.36-.474 7.1-.8a.808.808 0 0 1-.77-.669l8.2-1.261c-4.503.179-8.777.608-13.03 1.13zM197.54 43.801c4.856 1.686 11.947.846 17.347.972l-7.611-.125c.132-1.755-8.116-.708-9.736-.847zM63.756 22.514l4.1-.63zM73.272 15.398l-10.885.373 9.816-.742zM61.908 89.923c-.484.24-.164.54-.042.78-.059.923-2.992-1.317-2.762.69-.982-.331-2 .132-3 .2.118-.362.7-.373 1.1-.435l-.77-.658zM66.194 17.593l8.461-.784zM79.664 14.511c-2.254.78-5.256.108-7.886.171 2.78-.941 5.267.013 7.886-.171z"/><path class="a" d="M116.337 12.49c-5.319 1.428-17.054.718-25.6 1.083l-.282.3c-6.127.3-12.557.035-18.256.745l-1.585-.54c15.162.038 30.627-2.215 45.723-1.588zM94.894 87.69l-9.011.606 7.374-.355zM50.894 87.428l6.8-.522zM57.673 86.631l2.459-.387z"/><path class="a" d="M106.129 12.55c-.578.756-1.825.206-2.72-.091.477-.118 1.884-.508 2.72.091zM116.325 12.083l-7.876.171 5.462-.585zM107.52 20.25l9.248-.118zM133.155 11.393a58.278 58.278 0 0 1-16.322.188c5.469-.468 10.833.056 16.322-.188z"/><path class="a" d="M143.324 11.327c-5.827-.4-11.53 1.3-17.677.122 5.577-.949 11.672.278 17.677-.122zM136.315 27.384l-16.58-.307 12.787-.156zM147.881.421c-3.086-.226-8.092.641-10.861-.4 3.623.124 7.304-.311 10.861.4zM134.274 18.787l-4.082-.153 3.02-.2zM137.098 19.596l-5.187.286 4.344-.167zM142.349 74.286c-10.509-.024-21.157.226-31.847 1.017l.237.474-.017-.338 14.142-.1.014.341-14.954.223.817-.122c-3.674-1.69-7.69-.3-12.18-1.24 14.598.296 29.405-1.373 43.788-.255zM172.341 70.945l-76.116.286 60.1-.425zM149.03 11.326c.794-.721-2.355 1.62-3.546.028zM150.313 19.826l-.031-.345 8.969.185.014.345c-6.876-.157-13.933.495-20.642-.463 3.919.56 9.366-.614 11.69.278zM114.25 78.417zM153.319 27.089c-3.56.543-9.175-.575-13.856-.209zM152.831 11.462l-2.191.066 1.634-.254z"/><path class="a" d="M155.876 11.177c-.815.383-2.717 1.028-3.8.338a14.785 14.785 0 0 0 3.8-.338zM152.978 47.618c-2.814 0-5.6-.383-8.422 0l.244.474-1.658.254 1.658-.254-.244-.474-11.676-.275zM162.008 11.944l-2.72-.108 2.48-.373zM151.144 31.784l4.09.153zM149.588 38.151l4.9.031zM161.839 15.189l3.546-.031zM130.307 79.1l9.248-.118zM159.304 24.347l5.43.206zM168.472 17.642c1.268 1.163 4.323-.223 5.646 1.48-4.4.2-10.46.655-14.386-.383 2.913-1.097 6.577 1.582 8.74-1.097zM153.513 31.892l16.037.125zM160.849 27.823c.035-.522-.683-.637-1.3-.843l11.662.286-1.648.258 2.145.71-15.741-.435c1.637.01 3.182.592 4.882.024zM162.676 30.06l3.246.279zM165.124 27.858l2.476-.376zM139.211 79.284l10.06-.247zM168.942 22.65l4.6.331zM177.006 21.821c1.515 2.1 6.413 1 9.68 1.62l-15.727-.435c1.989-.136 4.385.073 5.984-.4-2.525-1.648-6.939-.32-10.265-1.014l12.491.157zM141.314 81.441l7.865-.171zM174.174 18.109l3.509-.021zM163.856 40.262l4.619.334zM177.992 19.526c-.958-.2-2.814.522-2.947-.571zM149.242 75.784l4.051.157zM163.4 47.771l3.537-.031zM178.194 35.085h-8.433l1.644-.258-2.125-.7c2.083 1.5 5.991.722 8.914.958zM148.988 79.365l2.459-.383zM157.203 81.164c-3.253.975-7.242-.01-10.868.383zM160.798 52.92l9.777.063zM155.645 70.862l3.243.275zM157.428 69.392l2.187-.073zM162.189 79.156l.017.355-10.6.07-.038-.345 9.788.052zM162.424 58.835l8.13.307zM178.774 28.085l4.88.024zM158.429 71.071l3.535-.021zM181.976 23.184l8.133.317zM168.258 52.896l5.97.383zM218.891 27.454l-23.634-.254.251.484-2.985.209c1.278-.373-1.212-1.209-2.672-.888l.24.481c-6.973-1.526-17.131.439-23.589-1.052 17.055-.457 34.941.42 52.389 1.02zM183.228 28.44l6.545-.223zM199.841 53.544c-11.4.672-25.964.091-38.845-.516zM165.38 51.2l29.082.47zM157.946 76.042l16.552.307zM168.042 58.988l11.118.1zM165.449 69.455l7.59.122zM162.488 55.365l39.364.69zM180.253 48.465l2.181-.073zM189.633 28.67l3.807-.331zM171.962 69.5l3.267.272zM168.871 77.156l3.264.286zM198.055 30.223c-2.261.038-4.629.32-6.775-.254zM186.239 32.264l18.458.54zM194.19 28.666l3.535-.021zM188.703 34.682l13.55.516zM185.952 76.08c-5.288.373-10.213-.735-15.5.045a.792.792 0 0 0 .763.655l-2.163.073 1.637-.254-1.321-.829a95.759 95.759 0 0 1 16.584.31zM178.663 77.648c-.582-1.122-2.8-1-4.323-.641l5.183-.272c-.122.369-.718.369-1.118.428.488 1.226 2.762.192 4.027.94l-9.77-.052zM195.744 63.771l-9.488-.359h8.429zM182.361 76.986l2.18-.08zM190.763 65.442l2.187-.08zM190.723 61.464l13.013.32zM203.061 78.522c-7.782.669-16.242-.536-24.445-.143 7.747-.275 16.312-.296 24.445.143zM193.425 70.904l4.873.024zM173.533 45.435c-2.435.857-5.6-.272-8.429-.017zM215.6 66.665a225.108 225.108 0 0 1-24.982-.307c7.948-.237 16.702.021 24.982.307zM202.325 71.05c-1.08-.1-3.459 1.191-4.89-.017zM175.952 45.832l3.839-.331zM198.259 71.43l17.674-.118zM197.408 46.163l-16.016-.125 5.988-.415zM192.569 55.759c-2.477 1.111-7.97.021-11.972.021zM208.272 51.767l-23.63-.254 5.162-.268zM211.551 79.107l-7.6-.136 3.825-.327zM178.592 63.115l2.48-.376zM168.908 77.101l3-.216zM195.524 56.334l3.825-.331zM204.782 61.416c-1.808.8 3.779.46 5.664.686-5.242.728-11.16-.575-16.859 0l11.439-.209zM205.179 53.547l2.713.108zM187.279 79.205a14.889 14.889 0 0 1-5.73.091zM216.953 62.656l2.989-.192zM225.365 62.663l4.891.021zM216.583 80.142l-.822.122 2.146.714-7.632-.122c2.121-.104 6.19.526 6.308-.714zM218.457 75.171l13.856.219zM223.024 71.088l2.181-.073zM220.603 81.089l5.73-.1zM241.234 81.553l5.183-.286zM258.131 80.761l2.125.711-2.163.08.289-.31c-.432-.676-2.529-.3-3.79-.46.122.237.439.533-.035.791 1.3-.362-1.191-1.2-2.668-.888l-.825.129 1.31.832-4.065-.153 1.637-.251-2.132-.714 11.143.108z"/></svg>
